src/assets/duotone/LikeDislike.svg

<svg width="24" height="24" viewBox="0 0 24 24"  xmlns="http://www.w3.org/2000/svg">
<path opacity="0.4" d="M13.1502 15.3699C12.9302 15.0499 12.5401 14.8699 12.0901 14.8699H9.76015C9.61015 14.8699 9.46016 14.8099 9.37016 14.6899C9.27016 14.5699 9.23015 14.4199 9.25015 14.2499L9.54015 12.3899C9.66015 11.8399 9.29015 11.2099 8.74015 11.0199C8.22015 10.8299 7.62016 11.0899 7.37016 11.4599L4.98016 15.0099L4.91016 15.1299V20.1499L5.00015 20.2398L6.80016 21.6299C7.04016 21.8699 7.58015 21.9999 7.96015 21.9999H10.1702C10.9302 21.9999 11.6902 21.4298 11.8702 20.7298L13.2701 16.4798C13.4101 16.0698 13.3702 15.6799 13.1502 15.3699Z" />
<path d="M3.82 13.2998H3.24C2.36 13.2998 2 13.6398 2 14.4798V20.1898C2 21.0298 2.36 21.3698 3.24 21.3698H3.82C4.7 21.3698 5.06 21.0298 5.06 20.1898V14.4798C5.06 13.6398 4.7 13.2998 3.82 13.2998Z" />
<path opacity="0.4" d="M11.2002 8.59973C11.4202 8.91973 11.8102 9.09973 12.2602 9.09973H14.5902C14.7402 9.09973 14.8902 9.15979 14.9802 9.27979C15.0802 9.39979 15.1202 9.54973 15.1002 9.71973L14.8102 11.5798C14.6902 12.1298 15.0602 12.7598 15.6102 12.9498C16.1302 13.1398 16.7302 12.8798 16.9802 12.5098L19.3702 8.95978L19.4402 8.83978V3.81976L19.3502 3.72974L17.5502 2.33978C17.3102 2.09978 16.7702 1.96973 16.3902 1.96973H14.1802C13.4202 1.96973 12.6602 2.53975 12.4802 3.23975L11.0802 7.48975C10.9402 7.88975 10.9802 8.28973 11.2002 8.59973Z" />
<path d="M20.53 10.6696H21.11C21.99 10.6696 22.35 10.3296 22.35 9.48962V3.77966C22.35 2.93966 21.99 2.59961 21.11 2.59961H20.53C19.65 2.59961 19.29 2.93966 19.29 3.77966V9.48962C19.29 10.3296 19.65 10.6696 20.53 10.6696Z" />
</svg>

<?xml version="1.0" encoding="UTF-8"?>
<svg width="24" height="24" viewBox="0 0 24 24" xmlns="http://www.w3.org/2000/svg">
 <path d="m13.15 15.37c-0.22-0.32-0.6101-0.5-1.0601-0.5h-2.33c-0.15 0-0.29999-0.06-0.38999-0.18-0.1-0.12-0.14001-0.27-0.12001-0.44l0.29-1.86c0.12-0.55-0.25-1.18-0.8-1.37-0.52-0.19-1.12 0.07-1.37 0.44l-2.39 3.55-0.07 0.12v5.02l0.08999 0.0899 1.8 1.3901c0.24 0.24 0.77999 0.37 1.16 0.37h2.21c0.76 0 1.52-0.5701 1.7-1.2701l1.3999-4.25c0.14-0.41 0.1001-0.7999-0.1199-1.1099z" opacity=".4"/>
 <path d="m3.82 13.3h-0.58c-0.88 0-1.24 0.34-1.24 1.18v5.71c0 0.84 0.36 1.18 1.24 1.18h0.58c0.88 0 1.24-0.34 1.24-1.18v-5.71c0-0.84-0.36-1.18-1.24-1.18z"/>
 <path d="m11.2 8.5997c0.22 0.32 0.61 0.5 1.06 0.5h2.33c0.15 0 0.3 0.06006 0.39 0.18006 0.1 0.12 0.14 0.26994 0.12 0.43994l-0.29 1.8601c-0.12 0.55 0.25 1.18 0.8 1.37 0.52 0.19 1.12-0.07 1.37-0.44l2.39-3.55 0.07-0.12v-5.02l-0.09-0.09002-1.8-1.39c-0.24-0.24-0.78-0.37005-1.16-0.37005h-2.21c-0.76 0-1.52 0.57002-1.7 1.27l-1.4 4.25c-0.14 0.4-0.1 0.79998 0.12 1.11z" opacity=".4"/>
 <path d="m20.53 10.67h0.58c0.88 0 1.24-0.34 1.24-1.18v-5.71c0-0.84-0.36-1.18-1.24-1.18h-0.58c-0.88 0-1.24 0.34005-1.24 1.18v5.71c0 0.83998 0.36 1.18 1.24 1.18z"/>
</svg>
